X:1
T:Medford
T:C Major              Hezekiah Moors, 1809
T:Transcribed from Province Harmony, 1809.
T:Isaac Watts, 1719, altered (Psalm 81)                          66. 86. (S. M.)
%%score [ 1 2 3 4 ]
L:1/8
Q:1/4=130
M:2/2
K:C
V:1 treble nm="Tr." snm="Tr."
V:2 treble nm="C." snm="C."
V:3 treble-8 nm="T." snm="T."
V:4 bass nm="B." snm="B."
V:1
 c4 | c2 d2 e2 d2 | c6 e2 | d2 ed c2 d2 | e6 e2 | c2 c2 c2 e2 | d2 d2 d2 BG | c2 c2 c2 e2 | %8
w: 1. Sing|to the Lord a-|loud, And|make a * joy- ful|noise; God|is our strength, our|Sa- vior God; Let *|Is- rael hear his|
{e} d6 d2 | e2 e2 e2 ce | d2 d2 d2 BG | c2 c2 c2 [Bd]2 | [ce]8 |] %13
w: voice. God|is our strength, our *|Sa- vior God, Let *|Is- rael hear his|voice.|
V:2
 E4 | G2 G2 G2 G2 | G6 G2 | G2 G2 G2 GF | E6 G2 | A2 A2 A2 [EG]2 | G2 G2 G2 GF | E2 E2 E2 [CG]2 | %8
w: 2. From|vile i- do- la-|try Pre-|serve his wor- ship *|clean; He|is the Lord who|sets us free From *|sla- ve- ry and|
 [DG]6"_He     is    the     Lord     who        sets     us    free" z2 | z8 | z4 z2 G2 | %11
w: sin.||From|
 G2 G2 G2 G2 | [EG]8 |] %13
w: sla- ve- ry and|sin.|
V:3
 G4 | c2 B2 c2 d2 | e6 c2 | d2 gf e2 d2 | c6 c2 | e2 e2 e2 c2 | d2 d2 d2 ed | c2 c2 c2 c2 | %8
w: 3. Yet,|O! that all his|saints Would|hear- ken * to his|voice! Soon|he would ease their|sore com- plaints, And *|bid their hearts re-|
{c} B6"_Soon   he   would   ease   their    sore   complaints," z2 | z8 | z4 z2 d2 | e2 e2 e2 d2 | %12
w: joice.||And|bid their hearts re-|
 c8 |] %13
w: joice.|
V:4
 C,4 | C,2 G,,2 C,2 G,2 | C6 C,2 | G,2 G,2 C2 G,2 | C,6 C2 | A,2 A,2 A,2 C2 | G,2 G,2 G,2 G,2 | %7
w: 4. While|he de- stroys our|foes, He'll|rich- ly feed his|flock; And|we will taste the|stream that flows From|
 C,2 C,2 C,2 C2 | G,6 G,2 | C2 C2 C2 C2 | D2 D,2 G,2 G,2 | C2 C2 C2 G,2 | C,8 |] %13
w: our e- ter- nal|rock. And|we will taste the|stream that flows From|our e- ter- nal|rock.|

